svgs/roto_force.svg

<svg width="192" height="192" viewBox="0 0 192 192" fill="none" xmlns="http://www.w3.org/2000/svg">
<path d="M99.8402 56.0062L106.639 40.3523L102.604 26.9414C102.404 26.364 102.028 25.865 101.528 25.5163C101.028 25.1675 100.431 24.987 99.8224 25.0007H83.8882C83.276 25.0036 82.6807 25.2025 82.189 25.5686C81.6972 25.9347 81.3346 26.4488 81.154 27.036L76.4397 42.656C72.5364 43.8108 68.7732 45.3983 65.2198 47.3893L51.077 39.7213C50.5307 39.43 49.9054 39.3234 49.294 39.4172C48.6825 39.511 48.1175 39.8002 47.6827 40.242L36.2271 51.4599C35.7871 51.8964 35.499 52.4638 35.4056 53.0777C35.3122 53.6916 35.4184 54.3194 35.7085 54.8679L43.3456 69.0678C41.3659 72.6206 39.7848 76.3829 38.6313 80.2858L23.0271 85.0191C22.4422 85.2005 21.9302 85.5645 21.5656 86.0583C21.201 86.552 21.0029 87.1497 21 87.7644V103.763C21.0029 104.378 21.201 104.975 21.5656 105.469C21.9302 105.963 22.4422 106.327 23.0271 106.508L38.7256 111.242C39.8917 115.079 41.4725 118.778 43.4399 122.27L35.7085 137.133C35.4184 137.681 35.3122 138.309 35.4056 138.923C35.499 139.537 35.7871 140.104 36.2271 140.541L47.4941 151.853C47.9289 152.295 48.4939 152.584 49.1054 152.678C49.7168 152.772 50.3421 152.665 50.8884 152.374L65.4555 144.564C68.9014 146.431 72.5364 147.923 76.2983 149.013L81.0125 164.965C81.1932 165.552 81.5558 166.066 82.0475 166.432C82.5393 166.798 83.1346 166.997 83.7468 167H92.5834L105.689 136.825H91.6448C69.2106 136.825 51.024 118.547 51.024 96C51.024 73.453 69.2106 55.175 91.6448 55.175C94.4522 55.175 97.1931 55.4612 99.8402 56.0062Z" stroke="black" stroke-width="10" stroke-linejoin="round"/>
<path d="M147 35H130.034L111.19 78.4869C106.354 73.0453 99.2761 69.6129 91.3908 69.6129C76.8156 69.6129 65 81.3402 65 95.8065C65 110.273 76.8156 122 91.3908 122C91.7087 122 92.0253 121.994 92.3405 121.983L92.3333 122H109.299L147 35Z" stroke="black" stroke-width="10" stroke-linejoin="round"/>
<path d="M153.931 59H171L133.069 147H116L153.931 59Z" stroke="black" stroke-width="10" stroke-linejoin="round"/>
</svg>

<svg xmlns="http://www.w3.org/2000/svg" width="192" height="192" fill="none" viewBox="0 0 192 192"><path stroke="#000" stroke-linejoin="round" stroke-width="10" d="m99.84 56.006 6.799-15.654-4.035-13.41a2.87 2.87 0 0 0-2.782-1.941H83.888a2.87 2.87 0 0 0-1.699.568c-.492.366-.854.88-1.035 1.467l-4.714 15.62a54.7 54.7 0 0 0-11.22 4.733l-14.143-7.668a2.865 2.865 0 0 0-3.394.521L36.227 51.46a2.89 2.89 0 0 0-.518 3.408l7.637 14.2a55.2 55.2 0 0 0-4.715 11.218l-15.604 4.733A2.9 2.9 0 0 0 21 87.763v15.999a2.89 2.89 0 0 0 2.027 2.745l15.699 4.734a55 55 0 0 0 4.714 11.028l-7.731 14.863a2.9 2.9 0 0 0 .518 3.408l11.267 11.312a2.87 2.87 0 0 0 3.394.521l14.568-7.81a54.7 54.7 0 0 0 10.842 4.449l4.715 15.952A2.87 2.87 0 0 0 83.747 167h8.836l13.106-30.175H91.645c-22.434 0-40.621-18.278-40.621-40.825s18.187-40.825 40.62-40.825a40.6 40.6 0 0 1 8.196.831Z"/><path stroke="#000" stroke-linejoin="round" stroke-width="10" d="M147 35h-16.966L111.19 78.487a26.4 26.4 0 0 0-19.8-8.874C76.817 69.613 65 81.34 65 95.807S76.816 122 91.39 122q.478 0 .95-.017l-.007.017H109.3zm6.931 24H171l-37.931 88H116z"/></svg>
